src/4-icons/input.svg

<svg width="260" height="260" viewBox="0 0 260 260" fill="none" xmlns="http://www.w3.org/2000/svg">
<g opacity="0.9">
<path fill-rule="evenodd" clip-rule="evenodd" d="M218.53 59.4619H41.4702C34.2938 59.4883 28.4966 65.2865 28.4702 72.4619V187.564C28.4966 194.739 34.2948 200.537 41.4702 200.564H218.53C225.706 200.538 231.504 194.74 231.53 187.564V72.4619C231.505 65.2601 225.707 59.4619 218.53 59.4619ZM220.35 189.384C219.856 189.878 219.232 190.138 218.505 190.164H41.4448C40.743 190.164 40.1184 189.878 39.5984 189.384C39.1048 188.889 38.8448 188.266 38.8448 187.564V72.4619C38.8448 71.7601 39.1312 71.1365 39.5984 70.6419C40.092 70.1473 40.7166 69.8873 41.4448 69.8619H218.505C219.207 69.8619 219.83 70.1473 220.35 70.6419C220.845 71.1365 221.105 71.7601 221.105 72.4619V187.564C221.13 188.266 220.845 188.889 220.35 189.384ZM112.658 89.024C110.37 86.944 107.355 85.644 104 85.644H95.3418V94.3022H104C106.34 94.3022 108.342 96.2776 108.342 98.644V159.302C108.342 161.642 106.366 163.644 104 163.644H95.3418V172.302H104C107.354 172.302 110.37 171.002 112.658 168.922C114.972 171.002 117.988 172.302 121.316 172.302H130V163.644H121.342C119.002 163.644 117 161.668 117 159.302V98.644C117 96.304 118.975 94.3022 121.342 94.3022H130V85.644H121.342C117.988 85.644 114.972 86.944 112.658 89.024ZM63.3885 90.1687H73.0085L73.0613 90.1667V105.975H82.1095V113.749H73.0613V150.747C73.0613 152.723 73.7113 154.049 75.0631 154.725C75.7913 155.089 77.0395 155.297 78.7549 155.297H78.7553C79.2224 155.297 79.7169 155.297 80.2367 155.271C80.7567 155.246 81.3803 155.193 82.0821 155.09V162.656C80.9903 162.969 79.8467 163.202 78.6767 163.332C77.4803 163.462 76.2067 163.541 74.8285 163.541C70.3821 163.541 67.3657 162.423 65.7803 160.135C64.1685 157.847 63.3885 154.909 63.3885 151.269V113.751H55.7185V105.977H63.3885V90.1687Z" fill="black"/>
</g>
</svg>

<svg width="260" height="260" fill="none" xmlns="http://www.w3.org/2000/svg"><path fill-rule="evenodd" clip-rule="evenodd" d="M218.53 59.462H41.47c-7.176.026-12.973 5.825-13 13v115.102c.027 7.175 5.825 12.973 13 13h177.06c7.176-.026 12.974-5.824 13-13V72.462c-.025-7.202-5.823-13-13-13Zm1.82 129.922c-.494.494-1.118.754-1.845.78H41.445c-.702 0-1.327-.286-1.847-.78a2.517 2.517 0 0 1-.753-1.82V72.462c0-.702.286-1.326.753-1.82.494-.495 1.119-.755 1.847-.78h177.06c.702 0 1.325.285 1.845.78.495.495.755 1.118.755 1.82v115.102c.025.702-.26 1.325-.755 1.82ZM112.658 89.024c-2.288-2.08-5.303-3.38-8.658-3.38h-8.658v8.658H104c2.34 0 4.342 1.976 4.342 4.342v60.658c0 2.34-1.976 4.342-4.342 4.342h-8.658v8.658H104c3.354 0 6.37-1.3 8.658-3.38 2.314 2.08 5.33 3.38 8.658 3.38H130v-8.658h-8.658c-2.34 0-4.342-1.976-4.342-4.342V98.644c0-2.34 1.975-4.342 4.342-4.342H130v-8.658h-8.658c-3.354 0-6.37 1.3-8.684 3.38Zm-49.27 1.145h9.62l.053-.002v15.808h9.048v7.774h-9.048v36.998c0 1.976.65 3.302 2.002 3.978.728.364 1.977.572 3.692.572.467 0 .962 0 1.482-.026a19.04 19.04 0 0 0 1.845-.181v7.566a20.669 20.669 0 0 1-3.405.676c-1.197.13-2.47.209-3.849.209-4.446 0-7.462-1.118-9.048-3.406-1.612-2.288-2.392-5.226-2.392-8.866v-37.518h-7.67v-7.774h7.67V90.169Z" fill="#000" opacity=".9"/></svg>
